( pcb2gcode 1.3.2 )
( Software-independent Gcode )
( This file uses a mill head of 0.80000mm to drill the 3 bit sizes. )
( Bit sizes: [0.40000] [0.80000] [1.00000] )

G94       (Millimeters per minute feed rate.)
G21       (Units == Millimeters.)
G91.1     (Incremental arc distance mode.)
G90       (Absolute coordinates.)
S10000    (RPM spindle speed.)
F100.00000 (Feedrate)
M3        (Spindle on clockwise.)
G00 Z5.00000

G0 X33.16379 Y11.82980
G1 Z-2.50000
G0 Z5.00000

G0 X4.08179 Y9.09980
G1 Z-2.50000
G0 Z5.00000

G0 X4.08179 Y11.09980
G1 Z-2.50000
G0 Z5.00000

G0 X4.08179 Y13.09980
G1 Z-2.50000
G0 Z5.00000

G0 X4.08179 Y15.09980
G1 Z-2.50000
G0 Z5.00000

G0 X4.08179 Y17.09980
G1 Z-2.50000
G0 Z5.00000

G0 X4.08179 Y19.09980
G1 Z-2.50000
G0 Z5.00000

G0 X4.08179 Y21.09980
G1 Z-2.50000
G0 Z5.00000

G0 X11.29379 Y6.62180
G1 Z-0.50000
G2 X11.29379 Y6.62180 I-0.10000 J0
G1 Z-1.50000
G2 X11.29379 Y6.62180 I-0.10000 J0
G1 Z-2.50000
G2 X11.29379 Y6.62180 I-0.10000 J0
G0 Z5.00000
G0 X13.83379 Y6.62180
G1 Z-0.50000
G2 X13.83379 Y6.62180 I-0.10000 J0
G1 Z-1.50000
G2 X13.83379 Y6.62180 I-0.10000 J0
G1 Z-2.50000
G2 X13.83379 Y6.62180 I-0.10000 J0
G0 Z5.00000
G0 X16.37379 Y6.62180
G1 Z-0.50000
G2 X16.37379 Y6.62180 I-0.10000 J0
G1 Z-1.50000
G2 X16.37379 Y6.62180 I-0.10000 J0
G1 Z-2.50000
G2 X16.37379 Y6.62180 I-0.10000 J0
G0 Z5.00000
G0 X18.91379 Y6.62180
G1 Z-0.50000
G2 X18.91379 Y6.62180 I-0.10000 J0
G1 Z-1.50000
G2 X18.91379 Y6.62180 I-0.10000 J0
G1 Z-2.50000
G2 X18.91379 Y6.62180 I-0.10000 J0
G0 Z5.00000
G0 X21.45379 Y6.62180
G1 Z-0.50000
G2 X21.45379 Y6.62180 I-0.10000 J0
G1 Z-1.50000
G2 X21.45379 Y6.62180 I-0.10000 J0
G1 Z-2.50000
G2 X21.45379 Y6.62180 I-0.10000 J0
G0 Z5.00000
G0 X23.99379 Y6.62180
G1 Z-0.50000
G2 X23.99379 Y6.62180 I-0.10000 J0
G1 Z-1.50000
G2 X23.99379 Y6.62180 I-0.10000 J0
G1 Z-2.50000
G2 X23.99379 Y6.62180 I-0.10000 J0
G0 Z5.00000
G0 X9.76979 Y12.97180
G1 Z-0.50000
G2 X9.76979 Y12.97180 I-0.10000 J0
G1 Z-1.50000
G2 X9.76979 Y12.97180 I-0.10000 J0
G1 Z-2.50000
G2 X9.76979 Y12.97180 I-0.10000 J0
G0 Z5.00000
G0 X9.76979 Y15.51180
G1 Z-0.50000
G2 X9.76979 Y15.51180 I-0.10000 J0
G1 Z-1.50000
G2 X9.76979 Y15.51180 I-0.10000 J0
G1 Z-2.50000
G2 X9.76979 Y15.51180 I-0.10000 J0
G0 Z5.00000
G0 X9.76979 Y18.05180
G1 Z-0.50000
G2 X9.76979 Y18.05180 I-0.10000 J0
G1 Z-1.50000
G2 X9.76979 Y18.05180 I-0.10000 J0
G1 Z-2.50000
G2 X9.76979 Y18.05180 I-0.10000 J0
G0 Z5.00000
G0 X9.76979 Y20.59180
G1 Z-0.50000
G2 X9.76979 Y20.59180 I-0.10000 J0
G1 Z-1.50000
G2 X9.76979 Y20.59180 I-0.10000 J0
G1 Z-2.50000
G2 X9.76979 Y20.59180 I-0.10000 J0
G0 Z5.00000
G0 X9.76979 Y25.16380
G1 Z-0.50000
G2 X9.76979 Y25.16380 I-0.10000 J0
G1 Z-1.50000
G2 X9.76979 Y25.16380 I-0.10000 J0
G1 Z-2.50000
G2 X9.76979 Y25.16380 I-0.10000 J0
G0 Z5.00000
G0 X12.30979 Y25.16380
G1 Z-0.50000
G2 X12.30979 Y25.16380 I-0.10000 J0
G1 Z-1.50000
G2 X12.30979 Y25.16380 I-0.10000 J0
G1 Z-2.50000
G2 X12.30979 Y25.16380 I-0.10000 J0
G0 Z5.00000
G0 X14.84979 Y25.16380
G1 Z-0.50000
G2 X14.84979 Y25.16380 I-0.10000 J0
G1 Z-1.50000
G2 X14.84979 Y25.16380 I-0.10000 J0
G1 Z-2.50000
G2 X14.84979 Y25.16380 I-0.10000 J0
G0 Z5.00000
G0 X20.69179 Y25.16380
G1 Z-0.50000
G2 X20.69179 Y25.16380 I-0.10000 J0
G1 Z-1.50000
G2 X20.69179 Y25.16380 I-0.10000 J0
G1 Z-2.50000
G2 X20.69179 Y25.16380 I-0.10000 J0
G0 Z5.00000
G0 X23.23179 Y25.16380
G1 Z-0.50000
G2 X23.23179 Y25.16380 I-0.10000 J0
G1 Z-1.50000
G2 X23.23179 Y25.16380 I-0.10000 J0
G1 Z-2.50000
G2 X23.23179 Y25.16380 I-0.10000 J0
G0 Z5.00000
G0 X7.22979 Y25.16380
G1 Z-0.50000
G2 X7.22979 Y25.16380 I-0.10000 J0
G1 Z-1.50000
G2 X7.22979 Y25.16380 I-0.10000 J0
G1 Z-2.50000
G2 X7.22979 Y25.16380 I-0.10000 J0
G0 Z5.00000
G0 X4.68979 Y25.16380
G1 Z-0.50000
G2 X4.68979 Y25.16380 I-0.10000 J0
G1 Z-1.50000
G2 X4.68979 Y25.16380 I-0.10000 J0
G1 Z-2.50000
G2 X4.68979 Y25.16380 I-0.10000 J0
G0 Z5.00000
G00 Z5.000 ( All done -- retract )

M5      (Spindle off.)
M9      (Coolant off.)
M2      (Program end.)

