( pcb2gcode 1.3.2 )
( Software-independent Gcode )

G94 ( Millimeters per minute feed rate. )
G21 ( Units == Millimeters. )

G90 ( Absolute coordinates. )
S10000 ( RPM spindle speed. )
G64 P0.01000 ( set maximum deviation from commanded toolpath )
F100.00000 ( Feedrate. )

F100.00000 ( Feedrate. )
M3 ( Spindle on clockwise. )
G04 P0 ( dwell for no time -- G64 should not smooth over this point )
G00 Z5.00000 ( retract )

G00 X37.73679 Y29.48180 ( rapid move to begin. )
G01 Z-0.83333 F50.00000 ( plunge. )
G04 P0 ( dwell for no time -- G64 should not smooth over this point )
F100.00000
G01 X37.73679 Y29.48180
X37.73679 Y0.19560
X37.68599 Y0.14480
X19.57809 Y0.14480
Z-0.60000
X18.27809 Y0.14480
Z-0.83333 F50.00000
F100.00000
G01 X0.17019 Y0.14480
X0.11939 Y0.19560
X0.11939 Y29.83740
X0.17019 Y29.88820
X18.27809 Y29.88820
Z-0.60000
X19.57809 Y29.88820
Z-0.83333 F50.00000
F100.00000
G01 X37.68599 Y29.88820
X37.73679 Y29.83740
X37.73679 Y29.48180
G01 Z-1.66667 F50.00000 ( plunge. )
G04 P0 ( dwell for no time -- G64 should not smooth over this point )
F100.00000
G01 X37.73679 Y29.48180
X37.73679 Y0.19560
X37.68599 Y0.14480
X19.57809 Y0.14480
Z-0.60000
X18.27809 Y0.14480
Z-1.66667 F50.00000
F100.00000
G01 X0.17019 Y0.14480
X0.11939 Y0.19560
X0.11939 Y29.83740
X0.17019 Y29.88820
X18.27809 Y29.88820
Z-0.60000
X19.57809 Y29.88820
Z-1.66667 F50.00000
F100.00000
G01 X37.68599 Y29.88820
X37.73679 Y29.83740
X37.73679 Y29.48180
G01 Z-2.50000 F50.00000 ( plunge. )
G04 P0 ( dwell for no time -- G64 should not smooth over this point )
F100.00000
G01 X37.73679 Y29.48180
X37.73679 Y0.19560
X37.68599 Y0.14480
X19.57809 Y0.14480
Z-0.60000
X18.27809 Y0.14480
Z-2.50000 F50.00000
F100.00000
G01 X0.17019 Y0.14480
X0.11939 Y0.19560
X0.11939 Y29.83740
X0.17019 Y29.88820
X18.27809 Y29.88820
Z-0.60000
X19.57809 Y29.88820
Z-2.50000 F50.00000
F100.00000
G01 X37.68599 Y29.88820
X37.73679 Y29.83740
X37.73679 Y29.48180

G04 P0 ( dwell for no time -- G64 should not smooth over this point )
G00 Z5.000 ( retract )

M5 ( Spindle off. )
M9 ( Coolant off. )
M2 ( Program end. )

