( pcb2gcode 1.3.2 )
( Software-independent Gcode )

G94 ( Millimeters per minute feed rate. )
G21 ( Units == Millimeters. )

G90 ( Absolute coordinates. )
S10000 ( RPM spindle speed. )
G64 P0.01000 ( set maximum deviation from commanded toolpath )
F100.00000 ( Feedrate. )

F100.00000 ( Feedrate. )
M3 ( Spindle on clockwise. )
G04 P0 ( dwell for no time -- G64 should not smooth over this point )
G00 Z5.00000 ( retract )

G00 X0.52579 Y29.88180 ( rapid move to begin. )
G01 Z-0.83333 F50.00000 ( plunge. )
G04 P0 ( dwell for no time -- G64 should not smooth over this point )
F100.00000
G01 X0.52579 Y29.88180
X18.29079 Y29.88180
Z-0.60000
X19.59079 Y29.88180
Z-0.83333 F50.00000
F100.00000
G01 X37.35579 Y29.88180
X37.50885 Y29.85137
X37.57802 Y29.81438
X37.63862 Y29.76465
X37.72534 Y29.63488
X37.75579 Y29.48180
X37.75579 Y0.52580
X37.72534 Y0.37274
X37.68836 Y0.30357
X37.63862 Y0.24297
X37.50885 Y0.15625
X37.35579 Y0.12580
X19.59079 Y0.12580
Z-0.60000
X18.29079 Y0.12580
Z-0.83333 F50.00000
F100.00000
G01 X0.52579 Y0.12580
X0.37271 Y0.15625
X0.30354 Y0.19323
X0.24294 Y0.24297
X0.15622 Y0.37274
X0.12579 Y0.52580
X0.12579 Y29.48180
X0.15622 Y29.63488
X0.24294 Y29.76465
X0.37271 Y29.85137
X0.52579 Y29.88180
G01 Z-1.66667 F50.00000 ( plunge. )
G04 P0 ( dwell for no time -- G64 should not smooth over this point )
F100.00000
G01 X0.52579 Y29.88180
X18.29079 Y29.88180
Z-0.60000
X19.59079 Y29.88180
Z-1.66667 F50.00000
F100.00000
G01 X37.35579 Y29.88180
X37.50885 Y29.85137
X37.57802 Y29.81438
X37.63862 Y29.76465
X37.72534 Y29.63488
X37.75579 Y29.48180
X37.75579 Y0.52580
X37.72534 Y0.37274
X37.68836 Y0.30357
X37.63862 Y0.24297
X37.50885 Y0.15625
X37.35579 Y0.12580
X19.59079 Y0.12580
Z-0.60000
X18.29079 Y0.12580
Z-1.66667 F50.00000
F100.00000
G01 X0.52579 Y0.12580
X0.37271 Y0.15625
X0.30354 Y0.19323
X0.24294 Y0.24297
X0.15622 Y0.37274
X0.12579 Y0.52580
X0.12579 Y29.48180
X0.15622 Y29.63488
X0.24294 Y29.76465
X0.37271 Y29.85137
X0.52579 Y29.88180
G01 Z-2.50000 F50.00000 ( plunge. )
G04 P0 ( dwell for no time -- G64 should not smooth over this point )
F100.00000
G01 X0.52579 Y29.88180
X18.29079 Y29.88180
Z-0.60000
X19.59079 Y29.88180
Z-2.50000 F50.00000
F100.00000
G01 X37.35579 Y29.88180
X37.50885 Y29.85137
X37.57802 Y29.81438
X37.63862 Y29.76465
X37.72534 Y29.63488
X37.75579 Y29.48180
X37.75579 Y0.52580
X37.72534 Y0.37274
X37.68836 Y0.30357
X37.63862 Y0.24297
X37.50885 Y0.15625
X37.35579 Y0.12580
X19.59079 Y0.12580
Z-0.60000
X18.29079 Y0.12580
Z-2.50000 F50.00000
F100.00000
G01 X0.52579 Y0.12580
X0.37271 Y0.15625
X0.30354 Y0.19323
X0.24294 Y0.24297
X0.15622 Y0.37274
X0.12579 Y0.52580
X0.12579 Y29.48180
X0.15622 Y29.63488
X0.24294 Y29.76465
X0.37271 Y29.85137
X0.52579 Y29.88180

G04 P0 ( dwell for no time -- G64 should not smooth over this point )
G00 Z8.000 ( retract )

M5 ( Spindle off. )
M9 ( Coolant off. )
M2 ( Program end. )

