( pcb2gcode 1.3.2 )
( Software-independent Gcode )

G94 ( Millimeters per minute feed rate. )
G21 ( Units == Millimeters. )

G90 ( Absolute coordinates. )
S10000 ( RPM spindle speed. )
G64 P0.02000 ( set maximum deviation from commanded toolpath )
F100.00000 ( Feedrate. )

F100.00000 ( Feedrate. )
M3 ( Spindle on clockwise. )
G04 P1.00000
G04 P0 ( dwell for no time -- G64 should not smooth over this point )
G00 Z3.00000 ( retract )

G00 X0.12580 Y0.52580 ( rapid move to begin. )
G01 Z-0.83333 F50.00000 ( plunge. )
G04 P0 ( dwell for no time -- G64 should not smooth over this point )
F100.00000
G01 X0.12580 Y0.52580
X0.12580 Y43.95980
X0.13347 Y44.03785
X0.15622 Y44.11288
X0.19321 Y44.18205
X0.24294 Y44.24265
X0.30354 Y44.29238
X0.37271 Y44.32937
X0.44774 Y44.35212
X0.52579 Y44.35980
X30.10179 Y44.35980
Z-0.60000
X31.40179 Y44.35980
Z-0.83333 F50.00000
F100.00000
G01 X60.97779 Y44.35980
X61.05582 Y44.35212
X61.13086 Y44.32937
X61.20002 Y44.29238
X61.26062 Y44.24265
X61.31036 Y44.18205
X61.34734 Y44.11288
X61.37010 Y44.03785
X61.37779 Y43.95980
X61.37779 Y0.52580
X61.37010 Y0.44777
X61.34734 Y0.37274
X61.31036 Y0.30357
X61.26062 Y0.24297
X61.20002 Y0.19323
X61.13086 Y0.15625
X61.05582 Y0.13349
X60.97779 Y0.12580
X31.40179 Y0.12580
Z-0.60000
X30.10179 Y0.12580
Z-0.83333 F50.00000
F100.00000
G01 X0.52579 Y0.12580
X0.44774 Y0.13349
X0.37271 Y0.15625
X0.30354 Y0.19323
X0.24294 Y0.24297
X0.19321 Y0.30357
X0.15622 Y0.37274
X0.13347 Y0.44777
X0.12580 Y0.52580
G01 Z-1.66667 F50.00000 ( plunge. )
G04 P0 ( dwell for no time -- G64 should not smooth over this point )
F100.00000
G01 X0.12580 Y0.52580
X0.12580 Y43.95980
X0.13347 Y44.03785
X0.15622 Y44.11288
X0.19321 Y44.18205
X0.24294 Y44.24265
X0.30354 Y44.29238
X0.37271 Y44.32937
X0.44774 Y44.35212
X0.52579 Y44.35980
X30.10179 Y44.35980
Z-0.60000
X31.40179 Y44.35980
Z-1.66667 F50.00000
F100.00000
G01 X60.97779 Y44.35980
X61.05582 Y44.35212
X61.13086 Y44.32937
X61.20002 Y44.29238
X61.26062 Y44.24265
X61.31036 Y44.18205
X61.34734 Y44.11288
X61.37010 Y44.03785
X61.37779 Y43.95980
X61.37779 Y0.52580
X61.37010 Y0.44777
X61.34734 Y0.37274
X61.31036 Y0.30357
X61.26062 Y0.24297
X61.20002 Y0.19323
X61.13086 Y0.15625
X61.05582 Y0.13349
X60.97779 Y0.12580
X31.40179 Y0.12580
Z-0.60000
X30.10179 Y0.12580
Z-1.66667 F50.00000
F100.00000
G01 X0.52579 Y0.12580
X0.44774 Y0.13349
X0.37271 Y0.15625
X0.30354 Y0.19323
X0.24294 Y0.24297
X0.19321 Y0.30357
X0.15622 Y0.37274
X0.13347 Y0.44777
X0.12580 Y0.52580
G01 Z-2.50000 F50.00000 ( plunge. )
G04 P0 ( dwell for no time -- G64 should not smooth over this point )
F100.00000
G01 X0.12580 Y0.52580
X0.12580 Y43.95980
X0.13347 Y44.03785
X0.15622 Y44.11288
X0.19321 Y44.18205
X0.24294 Y44.24265
X0.30354 Y44.29238
X0.37271 Y44.32937
X0.44774 Y44.35212
X0.52579 Y44.35980
X30.10179 Y44.35980
Z-0.60000
X31.40179 Y44.35980
Z-2.50000 F50.00000
F100.00000
G01 X60.97779 Y44.35980
X61.05582 Y44.35212
X61.13086 Y44.32937
X61.20002 Y44.29238
X61.26062 Y44.24265
X61.31036 Y44.18205
X61.34734 Y44.11288
X61.37010 Y44.03785
X61.37779 Y43.95980
X61.37779 Y0.52580
X61.37010 Y0.44777
X61.34734 Y0.37274
X61.31036 Y0.30357
X61.26062 Y0.24297
X61.20002 Y0.19323
X61.13086 Y0.15625
X61.05582 Y0.13349
X60.97779 Y0.12580
X31.40179 Y0.12580
Z-0.60000
X30.10179 Y0.12580
Z-2.50000 F50.00000
F100.00000
G01 X0.52579 Y0.12580
X0.44774 Y0.13349
X0.37271 Y0.15625
X0.30354 Y0.19323
X0.24294 Y0.24297
X0.19321 Y0.30357
X0.15622 Y0.37274
X0.13347 Y0.44777
X0.12580 Y0.52580
G04 P0 ( dwell for no time -- G64 should not smooth over this point )
G00 Z3.00000 ( retract )

G00 X4.22998 Y3.82782 ( rapid move to begin. )
G01 Z-0.83333 F50.00000 ( plunge. )
G04 P0 ( dwell for no time -- G64 should not smooth over this point )
F100.00000
G01 X4.22998 Y3.82782
X4.23783 Y3.75302
X4.26107 Y3.68152
X4.29869 Y3.61637
X4.34900 Y3.56049
X4.40989 Y3.51626
X4.47859 Y3.48566
X4.55218 Y3.47001
X4.62736 Y3.47001
X4.70095 Y3.48566
X4.76970 Y3.51626
X4.83051 Y3.56046
X4.88085 Y3.61637
X4.91847 Y3.68152
X4.94171 Y3.75304
X4.94959 Y3.82782
X4.94171 Y3.90268
X4.91847 Y3.97418
X4.88085 Y4.03933
X4.83051 Y4.09523
X4.76970 Y4.13943
X4.70095 Y4.17004
X4.62736 Y4.18566
X4.55218 Y4.18566
X4.47859 Y4.17004
X4.40989 Y4.13943
X4.34900 Y4.09521
X4.29869 Y4.03933
X4.26107 Y3.97418
X4.23785 Y3.90270
X4.22998 Y3.82782
G01 Z-1.66667 F50.00000 ( plunge. )
G04 P0 ( dwell for no time -- G64 should not smooth over this point )
F100.00000
G01 X4.22998 Y3.82782
X4.23783 Y3.75302
X4.26107 Y3.68152
X4.29869 Y3.61637
X4.34900 Y3.56049
X4.40989 Y3.51626
X4.47859 Y3.48566
X4.55218 Y3.47001
X4.62736 Y3.47001
X4.70095 Y3.48566
X4.76970 Y3.51626
X4.83051 Y3.56046
X4.88085 Y3.61637
X4.91847 Y3.68152
X4.94171 Y3.75304
X4.94959 Y3.82782
X4.94171 Y3.90268
X4.91847 Y3.97418
X4.88085 Y4.03933
X4.83051 Y4.09523
X4.76970 Y4.13943
X4.70095 Y4.17004
X4.62736 Y4.18566
X4.55218 Y4.18566
X4.47859 Y4.17004
X4.40989 Y4.13943
X4.34900 Y4.09521
X4.29869 Y4.03933
X4.26107 Y3.97418
X4.23785 Y3.90270
X4.22998 Y3.82782
G01 Z-2.50000 F50.00000 ( plunge. )
G04 P0 ( dwell for no time -- G64 should not smooth over this point )
F100.00000
G01 X4.22998 Y3.82782
X4.23783 Y3.75302
X4.26107 Y3.68152
X4.29869 Y3.61637
X4.34900 Y3.56049
X4.40989 Y3.51626
X4.47859 Y3.48566
X4.55218 Y3.47001
X4.62736 Y3.47001
X4.70095 Y3.48566
X4.76970 Y3.51626
X4.83051 Y3.56046
X4.88085 Y3.61637
X4.91847 Y3.68152
X4.94171 Y3.75304
X4.94959 Y3.82782
X4.94171 Y3.90268
X4.91847 Y3.97418
X4.88085 Y4.03933
X4.83051 Y4.09523
X4.76970 Y4.13943
X4.70095 Y4.17004
X4.62736 Y4.18566
X4.55218 Y4.18566
X4.47859 Y4.17004
X4.40989 Y4.13943
X4.34900 Y4.09521
X4.29869 Y4.03933
X4.26107 Y3.97418
X4.23785 Y3.90270
X4.22998 Y3.82782
G04 P0 ( dwell for no time -- G64 should not smooth over this point )
G00 Z3.00000 ( retract )

G00 X4.22998 Y39.38780 ( rapid move to begin. )
G01 Z-0.83333 F50.00000 ( plunge. )
G04 P0 ( dwell for no time -- G64 should not smooth over this point )
F100.00000
G01 X4.22998 Y39.38780
X4.23783 Y39.31299
X4.26107 Y39.24149
X4.29869 Y39.17634
X4.34900 Y39.12046
X4.40989 Y39.07624
X4.47859 Y39.04563
X4.55218 Y39.02999
X4.62736 Y39.02999
X4.70095 Y39.04563
X4.76970 Y39.07624
X4.83051 Y39.12044
X4.88085 Y39.17634
X4.91847 Y39.24149
X4.94171 Y39.31302
X4.94959 Y39.38780
X4.94171 Y39.46265
X4.91847 Y39.53415
X4.88085 Y39.59930
X4.83051 Y39.65521
X4.76970 Y39.69940
X4.70095 Y39.73001
X4.62736 Y39.74563
X4.55218 Y39.74563
X4.47859 Y39.73001
X4.40989 Y39.69940
X4.34900 Y39.65518
X4.29869 Y39.59930
X4.26107 Y39.53415
X4.23785 Y39.46268
X4.22998 Y39.38780
G01 Z-1.66667 F50.00000 ( plunge. )
G04 P0 ( dwell for no time -- G64 should not smooth over this point )
F100.00000
G01 X4.22998 Y39.38780
X4.23783 Y39.31299
X4.26107 Y39.24149
X4.29869 Y39.17634
X4.34900 Y39.12046
X4.40989 Y39.07624
X4.47859 Y39.04563
X4.55218 Y39.02999
X4.62736 Y39.02999
X4.70095 Y39.04563
X4.76970 Y39.07624
X4.83051 Y39.12044
X4.88085 Y39.17634
X4.91847 Y39.24149
X4.94171 Y39.31302
X4.94959 Y39.38780
X4.94171 Y39.46265
X4.91847 Y39.53415
X4.88085 Y39.59930
X4.83051 Y39.65521
X4.76970 Y39.69940
X4.70095 Y39.73001
X4.62736 Y39.74563
X4.55218 Y39.74563
X4.47859 Y39.73001
X4.40989 Y39.69940
X4.34900 Y39.65518
X4.29869 Y39.59930
X4.26107 Y39.53415
X4.23785 Y39.46268
X4.22998 Y39.38780
G01 Z-2.50000 F50.00000 ( plunge. )
G04 P0 ( dwell for no time -- G64 should not smooth over this point )
F100.00000
G01 X4.22998 Y39.38780
X4.23783 Y39.31299
X4.26107 Y39.24149
X4.29869 Y39.17634
X4.34900 Y39.12046
X4.40989 Y39.07624
X4.47859 Y39.04563
X4.55218 Y39.02999
X4.62736 Y39.02999
X4.70095 Y39.04563
X4.76970 Y39.07624
X4.83051 Y39.12044
X4.88085 Y39.17634
X4.91847 Y39.24149
X4.94171 Y39.31302
X4.94959 Y39.38780
X4.94171 Y39.46265
X4.91847 Y39.53415
X4.88085 Y39.59930
X4.83051 Y39.65521
X4.76970 Y39.69940
X4.70095 Y39.73001
X4.62736 Y39.74563
X4.55218 Y39.74563
X4.47859 Y39.73001
X4.40989 Y39.69940
X4.34900 Y39.65518
X4.29869 Y39.59930
X4.26107 Y39.53415
X4.23785 Y39.46268
X4.22998 Y39.38780
G04 P0 ( dwell for no time -- G64 should not smooth over this point )
G00 Z3.00000 ( retract )

G00 X56.29995 Y3.57380 ( rapid move to begin. )
G01 Z-0.83333 F50.00000 ( plunge. )
G04 P0 ( dwell for no time -- G64 should not smooth over this point )
F100.00000
G01 X56.29995 Y3.57380
X56.30780 Y3.49899
X56.33104 Y3.42749
X56.36866 Y3.36234
X56.41898 Y3.30646
X56.47986 Y3.26224
X56.54857 Y3.23163
X56.62215 Y3.21599
X56.69734 Y3.21599
X56.77092 Y3.23163
X56.83968 Y3.26224
X56.90049 Y3.30644
X56.95083 Y3.36234
X56.98845 Y3.42749
X57.01169 Y3.49902
X57.01956 Y3.57380
X57.01169 Y3.64865
X56.98845 Y3.72015
X56.95083 Y3.78530
X56.90049 Y3.84121
X56.83968 Y3.88540
X56.77092 Y3.91601
X56.69734 Y3.93163
X56.62215 Y3.93163
X56.54857 Y3.91601
X56.47986 Y3.88540
X56.41898 Y3.84118
X56.36866 Y3.78530
X56.33104 Y3.72015
X56.30783 Y3.64868
X56.29995 Y3.57380
G01 Z-1.66667 F50.00000 ( plunge. )
G04 P0 ( dwell for no time -- G64 should not smooth over this point )
F100.00000
G01 X56.29995 Y3.57380
X56.30780 Y3.49899
X56.33104 Y3.42749
X56.36866 Y3.36234
X56.41898 Y3.30646
X56.47986 Y3.26224
X56.54857 Y3.23163
X56.62215 Y3.21599
X56.69734 Y3.21599
X56.77092 Y3.23163
X56.83968 Y3.26224
X56.90049 Y3.30644
X56.95083 Y3.36234
X56.98845 Y3.42749
X57.01169 Y3.49902
X57.01956 Y3.57380
X57.01169 Y3.64865
X56.98845 Y3.72015
X56.95083 Y3.78530
X56.90049 Y3.84121
X56.83968 Y3.88540
X56.77092 Y3.91601
X56.69734 Y3.93163
X56.62215 Y3.93163
X56.54857 Y3.91601
X56.47986 Y3.88540
X56.41898 Y3.84118
X56.36866 Y3.78530
X56.33104 Y3.72015
X56.30783 Y3.64868
X56.29995 Y3.57380
G01 Z-2.50000 F50.00000 ( plunge. )
G04 P0 ( dwell for no time -- G64 should not smooth over this point )
F100.00000
G01 X56.29995 Y3.57380
X56.30780 Y3.49899
X56.33104 Y3.42749
X56.36866 Y3.36234
X56.41898 Y3.30646
X56.47986 Y3.26224
X56.54857 Y3.23163
X56.62215 Y3.21599
X56.69734 Y3.21599
X56.77092 Y3.23163
X56.83968 Y3.26224
X56.90049 Y3.30644
X56.95083 Y3.36234
X56.98845 Y3.42749
X57.01169 Y3.49902
X57.01956 Y3.57380
X57.01169 Y3.64865
X56.98845 Y3.72015
X56.95083 Y3.78530
X56.90049 Y3.84121
X56.83968 Y3.88540
X56.77092 Y3.91601
X56.69734 Y3.93163
X56.62215 Y3.93163
X56.54857 Y3.91601
X56.47986 Y3.88540
X56.41898 Y3.84118
X56.36866 Y3.78530
X56.33104 Y3.72015
X56.30783 Y3.64868
X56.29995 Y3.57380
G04 P0 ( dwell for no time -- G64 should not smooth over this point )
G00 Z3.00000 ( retract )

G00 X56.55398 Y39.89580 ( rapid move to begin. )
G01 Z-0.83333 F50.00000 ( plunge. )
G04 P0 ( dwell for no time -- G64 should not smooth over this point )
F100.00000
G01 X56.55398 Y39.89580
X56.56183 Y39.82099
X56.58507 Y39.74949
X56.62269 Y39.68434
X56.67300 Y39.62846
X56.73389 Y39.58424
X56.80259 Y39.55363
X56.87618 Y39.53799
X56.95136 Y39.53799
X57.02495 Y39.55363
X57.09370 Y39.58424
X57.15451 Y39.62844
X57.20485 Y39.68434
X57.24247 Y39.74949
X57.26571 Y39.82102
X57.27359 Y39.89580
X57.26571 Y39.97065
X57.24247 Y40.04215
X57.20485 Y40.10730
X57.15451 Y40.16321
X57.09370 Y40.20740
X57.02495 Y40.23801
X56.95136 Y40.25363
X56.87618 Y40.25363
X56.80259 Y40.23801
X56.73389 Y40.20740
X56.67300 Y40.16318
X56.62269 Y40.10730
X56.58507 Y40.04215
X56.56185 Y39.97068
X56.55398 Y39.89580
G01 Z-1.66667 F50.00000 ( plunge. )
G04 P0 ( dwell for no time -- G64 should not smooth over this point )
F100.00000
G01 X56.55398 Y39.89580
X56.56183 Y39.82099
X56.58507 Y39.74949
X56.62269 Y39.68434
X56.67300 Y39.62846
X56.73389 Y39.58424
X56.80259 Y39.55363
X56.87618 Y39.53799
X56.95136 Y39.53799
X57.02495 Y39.55363
X57.09370 Y39.58424
X57.15451 Y39.62844
X57.20485 Y39.68434
X57.24247 Y39.74949
X57.26571 Y39.82102
X57.27359 Y39.89580
X57.26571 Y39.97065
X57.24247 Y40.04215
X57.20485 Y40.10730
X57.15451 Y40.16321
X57.09370 Y40.20740
X57.02495 Y40.23801
X56.95136 Y40.25363
X56.87618 Y40.25363
X56.80259 Y40.23801
X56.73389 Y40.20740
X56.67300 Y40.16318
X56.62269 Y40.10730
X56.58507 Y40.04215
X56.56185 Y39.97068
X56.55398 Y39.89580
G01 Z-2.50000 F50.00000 ( plunge. )
G04 P0 ( dwell for no time -- G64 should not smooth over this point )
F100.00000
G01 X56.55398 Y39.89580
X56.56183 Y39.82099
X56.58507 Y39.74949
X56.62269 Y39.68434
X56.67300 Y39.62846
X56.73389 Y39.58424
X56.80259 Y39.55363
X56.87618 Y39.53799
X56.95136 Y39.53799
X57.02495 Y39.55363
X57.09370 Y39.58424
X57.15451 Y39.62844
X57.20485 Y39.68434
X57.24247 Y39.74949
X57.26571 Y39.82102
X57.27359 Y39.89580
X57.26571 Y39.97065
X57.24247 Y40.04215
X57.20485 Y40.10730
X57.15451 Y40.16321
X57.09370 Y40.20740
X57.02495 Y40.23801
X56.95136 Y40.25363
X56.87618 Y40.25363
X56.80259 Y40.23801
X56.73389 Y40.20740
X56.67300 Y40.16318
X56.62269 Y40.10730
X56.58507 Y40.04215
X56.56185 Y39.97068
X56.55398 Y39.89580

G04 P0 ( dwell for no time -- G64 should not smooth over this point )
G00 Z8.000 ( retract )

M5 ( Spindle off. )
G04 P1.000000M9 ( Coolant off. )
M2 ( Program end. )

